X: 4
T: High Caul Cap
R: polka
M: 2/4
L: 1/8
K: Amaj
|:A>B cc|dB c2|cB BA|cB BA|A>B cc|dB c2|cB ee|A2 A2:|f2 e2|d2 c2|cB BA|cB BA|f2 e2|d2 c2|cB ee|A2 A2|f2 e2|d2 c2|cB BA|cB BA|fa e>c|de c2|cB ee|A2 A2|]


Tune 1524	Setting 14925

